img/portfolio.svg

<svg width="44" height="44" viewBox="0 0 44 44" fill="none" xmlns="http://www.w3.org/2000/svg">
<path d="M44 14.1814C44 12.2559 42.4337 10.6895 40.5081 10.6895H36.1696V8.48669C36.1696 8.13086 35.8813 7.84216 35.5251 7.84216H34.0339V4.21567C34.0339 3.85983 33.7456 3.57114 33.3894 3.57114H28.3392V2.79199C28.3392 2.43616 28.0505 2.14746 27.6947 2.14746H16.305C15.9491 2.14746 15.6604 2.43616 15.6604 2.79199V3.57114H10.6103C10.2541 3.57114 9.96573 3.85983 9.96573 4.21567V7.84216H8.47458C8.11874 7.84216 7.83005 8.13086 7.83005 8.48669V10.6895H3.49188C1.56635 10.6895 0 12.2559 0 14.1814V22.7238C0 23.08 0.288696 23.3683 0.644531 23.3683H1.42334V38.3846C1.42334 40.3101 2.99002 41.8764 4.91522 41.8764H39.0844C41.01 41.8764 42.5763 40.3101 42.5763 38.3846V23.3683H43.3555C43.5263 23.3683 43.6905 23.3005 43.8113 23.1797C43.9322 23.0588 44 22.895 44 22.7238V14.1814ZM34.8806 9.13123V10.6895H31.8986V9.13123H34.8806ZM16.9495 3.43652H27.0502V4.99481H16.9495V3.43652ZM9.11911 9.13123H12.1014V10.6895H9.11911V9.13123ZM41.2873 38.3846C41.2873 39.5994 40.299 40.5874 39.0844 40.5874H4.91522C3.70068 40.5874 2.7124 39.5994 2.7124 38.3846V23.3683H7.11804V24.9266H6.3389C5.98306 24.9266 5.69437 25.2153 5.69437 25.5711V28.4185C5.69437 28.7743 5.98306 29.063 6.3389 29.063H7.11804V31.2658C7.11804 31.5102 7.25601 31.7331 7.47455 31.8422L10.3219 33.2662C10.4125 33.3119 10.5112 33.3344 10.6103 33.3344C10.709 33.3344 10.8076 33.3119 10.8983 33.2662L13.7456 31.8422C13.9638 31.7331 14.1021 31.5102 14.1021 31.2658V29.063H14.881C15.2371 29.063 15.5255 28.7743 15.5255 28.4185V25.5711C15.5255 25.2153 15.2371 24.9266 14.881 24.9266H14.1021V23.3683H18.5078V26.2831C18.5078 26.639 18.7965 26.9277 19.1523 26.9277H24.8474C25.2032 26.9277 25.4919 26.639 25.4919 26.2831V23.3683H29.8975V24.9266H29.1184C28.7622 24.9266 28.4738 25.2153 28.4738 25.5711V28.4185C28.4738 28.7743 28.7622 29.063 29.1184 29.063H29.8975V31.2658C29.8975 31.5099 30.0352 31.7331 30.2537 31.8422L33.101 33.2662C33.1917 33.3119 33.2907 33.3344 33.3894 33.3344C33.4881 33.3344 33.5868 33.3119 33.6778 33.2662L36.5251 31.8422C36.7433 31.7331 36.8813 31.5102 36.8813 31.2658V29.063H37.6604C38.0166 29.063 38.305 28.7743 38.305 28.4185V25.5711C38.305 25.2153 38.0166 24.9266 37.6604 24.9266H36.8813V23.3683H41.2873V38.3846ZM8.40744 22.7255C8.40744 22.7251 8.40744 22.7245 8.40744 22.7238C8.40744 22.7234 8.40744 22.7228 8.40744 22.7221V20.521H12.8131V24.9266H8.40744V22.7255ZM6.98376 19.2319V17.6733H14.2368V19.2319H6.98376ZM14.2368 26.2157V27.774H6.98376V26.2157H14.2368ZM12.8131 29.063V30.8677L10.6103 31.9695L8.40744 30.8677V29.063H12.8131ZM21.3555 23.3683V24.1475C21.3555 24.5036 21.6438 24.792 22 24.792C22.3558 24.792 22.6445 24.5036 22.6445 24.1475V23.3683H24.2028V25.6386H19.7968V23.3683H21.3555ZM19.7968 22.0793V21.233H24.2028V22.0793H19.7968ZM31.1866 22.7255C31.1866 22.7251 31.1866 22.7245 31.1866 22.7238C31.1866 22.7234 31.1866 22.7228 31.1866 22.7221V20.521H35.5922V24.9266H31.1866V22.7255ZM29.7629 19.2319V17.6733H37.0159V19.2319H29.7629ZM37.0159 26.2157V27.774H29.7629V26.2157H37.0159ZM35.5922 29.063V30.8677L33.3894 31.9695L31.1866 30.8677V29.063H35.5922ZM41.9345 22.0793C41.9335 22.0793 41.9328 22.0793 41.9318 22.0793C41.9311 22.0793 41.9301 22.0793 41.9294 22.0793H36.8813V20.521H37.6604C38.0166 20.521 38.305 20.2323 38.305 19.8764V17.6736H38.3724C38.7286 17.6736 39.017 17.3849 39.017 17.0291C39.017 16.6729 38.7286 16.3846 38.3724 16.3846H28.4067C28.0505 16.3846 27.7622 16.6729 27.7622 17.0291C27.7622 17.3849 28.0505 17.6736 28.4067 17.6736H28.4738V19.8764C28.4738 20.2323 28.7625 20.521 29.1184 20.521H29.8975V22.0793H25.4919V20.5884C25.4919 20.2323 25.2032 19.9439 24.8474 19.9439H19.1523C18.7965 19.9439 18.5078 20.2323 18.5078 20.5884V22.0793H14.1021V20.521H14.8813C15.2371 20.521 15.5258 20.2323 15.5258 19.8764V17.6736H15.5933C15.9491 17.6736 16.2378 17.3849 16.2378 17.0291C16.2378 16.6729 15.9491 16.3846 15.5933 16.3846H5.62723C5.27139 16.3846 4.9827 16.6729 4.9827 17.0291C4.9827 17.3849 5.27139 17.6736 5.62723 17.6736H5.6947V19.8764C5.6947 20.2323 5.98306 20.521 6.33923 20.521H7.11838V22.0793H1.28906V14.1814C1.28906 12.9669 2.27734 11.9786 3.49188 11.9786H15.5933C15.9491 11.9786 16.2378 11.6899 16.2378 11.334C16.2378 10.9782 15.9491 10.6895 15.5933 10.6895H13.3905V8.48669C13.3905 8.13086 13.1018 7.84216 12.7459 7.84216H11.2548V4.8602H15.6604V5.63934C15.6604 5.99551 15.9491 6.28387 16.305 6.28387H27.6947C28.0505 6.28387 28.3392 5.99551 28.3392 5.63934V4.8602H32.7452V7.84216H31.2541C30.8979 7.84216 30.6095 8.13086 30.6095 8.48669V10.6895H18.1754C17.8196 10.6895 17.5309 10.9782 17.5309 11.334C17.5309 11.6899 17.8196 11.9786 18.1754 11.9786H40.5081C41.7227 11.9786 42.7109 12.9669 42.7109 14.1814V22.0793H41.9345Z" fill="white"/>
<path d="M4.27103 38.3843C4.27103 38.7404 4.55939 39.0288 4.91556 39.0288H39.0844C39.4403 39.0288 39.729 38.7404 39.729 38.3843C39.729 38.0284 39.4403 37.7397 39.0844 37.7397H4.91556C4.55939 37.7397 4.27103 38.0284 4.27103 38.3843Z" fill="white"/>
</svg>

<svg width="44" height="44" fill="none" xmlns="http://www.w3.org/2000/svg"><path d="M44 14.181a3.496 3.496 0 0 0-3.492-3.491H36.17V8.487a.644.644 0 0 0-.645-.645h-1.491V4.216a.644.644 0 0 0-.645-.645h-5.05v-.779a.645.645 0 0 0-.644-.645h-11.39a.645.645 0 0 0-.645.645v.78h-5.05a.644.644 0 0 0-.644.644v3.626H8.475a.645.645 0 0 0-.645.645v2.203H3.492A3.496 3.496 0 0 0 0 14.18v8.543c0 .356.289.644.645.644h.778v15.017a3.496 3.496 0 0 0 3.492 3.491h34.17a3.496 3.496 0 0 0 3.491-3.491V23.368h.78a.645.645 0 0 0 .644-.644V14.18Zm-9.12-5.05v1.559H31.9V9.13h2.982ZM16.95 3.437h10.1v1.558h-10.1V3.437ZM9.12 9.13H12.1v1.559H9.12V9.13Zm32.167 29.254a2.205 2.205 0 0 1-2.203 2.202H4.915a2.205 2.205 0 0 1-2.203-2.202V23.368h4.406v1.559h-.78a.645.645 0 0 0-.644.644v2.848c0 .355.29.644.645.644h.779v2.203c0 .244.138.467.357.576l2.847 1.424a.64.64 0 0 0 .576 0l2.848-1.424a.644.644 0 0 0 .356-.576v-2.203h.779a.644.644 0 0 0 .644-.644V25.57a.644.644 0 0 0-.644-.644h-.779v-1.559h4.406v2.915c0 .356.289.645.644.645h5.695a.645.645 0 0 0 .645-.645v-2.915h4.405v1.559h-.779a.645.645 0 0 0-.644.644v2.848c0 .355.288.644.644.644h.78v2.203c0 .244.137.467.356.576l2.847 1.424a.64.64 0 0 0 .577 0l2.847-1.424a.644.644 0 0 0 .356-.576v-2.203h.78a.645.645 0 0 0 .644-.644V25.57a.645.645 0 0 0-.645-.644h-.779v-1.559h4.406v15.017Zm-32.88-15.66v-2.204h4.406v4.406H8.407v-2.201Zm-1.423-3.493v-1.559h7.253v1.559H6.984Zm7.253 6.984v1.558H6.984v-1.558h7.253Zm-1.424 2.847v1.805L10.61 31.97l-2.203-1.102v-1.805h4.406Zm8.542-5.695v.78a.644.644 0 1 0 1.29 0v-.78h1.558v2.27h-4.406v-2.27h1.558Zm-1.558-1.289v-.846h4.406v.846h-4.406Zm11.39.646v-2.204h4.405v4.406h-4.405v-2.201Zm-1.424-3.493v-1.559h7.253v1.559h-7.253Zm7.253 6.984v1.558h-7.253v-1.558h7.253Zm-1.424 2.847v1.805L33.39 31.97l-2.202-1.102v-1.805h4.405Zm6.343-6.984H36.88v-1.558h.78a.645.645 0 0 0 .644-.645v-2.202h.067a.645.645 0 1 0 0-1.29h-9.965a.644.644 0 1 0 0 1.29h.067v2.202c0 .356.288.645.644.645h.78v1.558h-4.406v-1.49a.644.644 0 0 0-.645-.645h-5.695a.644.644 0 0 0-.644.644v1.491h-4.406v-1.558h.78a.645.645 0 0 0 .644-.645v-2.202h.067a.645.645 0 0 0 0-1.29H5.627a.644.644 0 1 0 0 1.29h.068v2.202c0 .356.288.645.644.645h.78v1.558h-5.83v-7.898c0-1.214.988-2.202 2.203-2.202h12.101a.645.645 0 0 0 0-1.29H13.39V8.488a.645.645 0 0 0-.644-.645h-1.491V4.86h4.405v.78c0 .356.29.644.645.644h11.39a.644.644 0 0 0 .644-.645V4.86h4.406v2.982h-1.49a.645.645 0 0 0-.645.645v2.203H18.175a.645.645 0 0 0 0 1.289h22.333c1.215 0 2.203.988 2.203 2.202v7.898h-.776Z" fill="#fff"/><path d="M4.271 38.384c0 .356.288.645.645.645h34.168a.645.645 0 1 0 0-1.29H4.916a.644.644 0 0 0-.645.645Z" fill="#fff"/></svg>
